X:1
T:Pour ung plaisir
T:Claudin de Sermisy
T:Source : Second livre contenant 25 chansons nouvelles à 4 parties---Paris---P.Attaignant---1536. Editor : André Vierendeels (24/04/18) Notes : Original clefs : C1, C2, C3, F3 Original note values have been halved Editorial accidentals above the staff  
T:Pour ung plaisir
T:©
T:©
T:©
C:Claudin de Sermisy
Z:©
%%score [ 1 2 3 4 ]
L:1/8
Q:1/4=120
M:2/2
K:C
V:1 treble nm="Soprano" snm="S"
V:2 treble nm="Alto" snm="A"
V:3 treble-8 nm="Tenor" snm="T"
V:4 bass nm="Bass" snm="B"
V:1
 c4 c2 c2 | c6 c2 | A4 c4 | B4 G4 | A4 A2 A2 | E3 F G2 A2 | B2 A4 G2 | A4 z4 | c4 c2 c2 | c6 c2 | %10
w: Pour ung plai-|sir que|si peu|du- re,|i'ay en- du-|ré _ _ pei-|n'et tra- *|vaulx,|i'en ay souf-|fert dou-|
 A4 c4 | B4 G4 | A4 A2 A2 | E3 F G2 A2 | B2 A4 G2 | A4 z4 | c4 c2 d2 | e6 d2- | d2 c4 B2 | c4 z4 | %20
w: leur trop|du- re,|i'en ay re-|ceu _ _ cent|mil- * le|maulx,|i'en ay eu|de trop|_ grands as-|saulx,|
 c4 c2 c2 | c6 c2 | A4 c4 | B4 G4 | A4 A2 A2 | E3 F G2 A2 | B2 A4 G2 | A4 z4 | c4 c2 c2 | c6 c2 | %30
w: or, dieu me|doibt bon-|ne'ad- ven-|tu- re,|for- tu- ne'a|faict _ _ sur|moy _ ses|saulx,|or, dieu me|doibt bon-|
 A4 c4 | B4 G4 | A4 A2 A2 | E3 F G2 A2 | B2 A4 G2 | A8 |] %36
w: ne'ad- ven-|tu- re,|for- tu- ne'a|faict _ _ sur|moy _ ses|saulx.|
V:2
 G4 A2 A2 | A6 G2 | F4 EDEF | G4 E4 | F4 F2 F2 | G3 F E2 C2 | GFED E2 E2 | C4 z4 | G4 A2 A2 | %9
w: Pour ung plai-|sir que|si peu _ _ _|du- re,|i'ay en- du-|ré _ _ pei-|n'et- * * * * tra-|vaulx,|i'en ay souf-|
 A6 G2 | F4 EDEF | G4 E4 | F4 F2 F2 | G3 F E2 C2 | GFED E2 E2 | C4 z4 | A4 A2 B2 | c6 B2 | %18
w: fert dou-|leur trop _ _ _|du- re,|i'en ay re-|ceu _ _ cent|mil- * * * * le|maulx,|i'en ay eu|de trop|
 A2 F2 G4 | E4 z4 | G4 A2 A2 | A6 G2 | F4 EDEF | G4 E4 | F4 F2 F2 | G3 F E2 C2 | GFED E2 E2 | %27
w: _ grands as-|saulx,|or, dieu me|doibt bon-|ne'ad- ven- * * *|tu- re,|for- tu- ne'a|faict _ _ sur|moy _ _ _ _ ses|
 C4 z4 | G4 A2 A2 | A6 G2 | F4 EDEF | G4 E4 | F4 F2 F2 | G3 F E2 C2 | GFED E2 E2 | C8 |] %36
w: saulx,|or, dieu me|doibt bon-|ne'ad- ven- * * *|tu- re,|for- tu- ne'a|faict _ _ sur|moy _ _ _ _ ses|saulx.|
V:3
 e4 e2 e2 | e6 e2 | c4 c4 | d4 c4 | c4 d2 c2 | c2 c2 B2 A2 | dcBA B4 | A4 z4 | e4 e2 e2 | e6 e2 | %10
w: Pour ung plai-|sir que|si peu|du- re,|i'ay en- du-|ré pei- n'et tra-||vaulx,|i'en ay souf-|fert dou-|
 c4 c4 | d4 c4 | c4 d2 c2 | c2 c2 B2 A2 | dcBA B4 | A4 z4 | e4 e2 f2 | g6 f2 | e2 dc d2 d2 | %19
w: leur trop|du- re,|i'en ay re-|ceu cent mil- *|* * * * le|maulx,|i'en ay eu|de trop|grands- * * * as-|
 c4 z4 | e4 e2 e2 | e6 e2 | c4 c4 | d4 c4 | c4 d2 c2 | c2 c2 B2 A2 | dcBA B4 | A4 z4 | e4 e2 e2 | %29
w: saulx,|or, dieu me|doibt bon-|ne'ad- ven-|tu- re,|for- tu- ne'a|faict _ _ sur|moy _ _ _ ses|saulx,|or, dieu me|
 e6 e2 | c4 c4 | d4 c4 | c4 d2 c2 | c2 c2 B2 A2 | dcBA B4 | A8 |] %36
w: doibt bon-|ne'ad- ven-|tu- re,|for- tu- ne'a|faict _ _ sur|moy _ _ _ ses|saulx.|
V:4
 C4 A,2 A,2 | A,6 C2 | F,4 A,4 | G,4 C,4 | F,4 D,2 F,2 | C,3 D, E,2 F,2 | G,2 A,2 E,4 | A,4 z4 | %8
w: Pour ung plai-|sir que|si pru|du- re,|i'ay en- du-|ré pei- n'et tra-||vaulx,|
 C4 A,2 A,2 | A,6 C2 | F,4 A,4 | G,4 C,4 | F,4 D,2 F,2 | C,3 D, E,2 F,2 | G,2 A,2 E,4 | A,4 z4 | %16
w: i'en ay souf-|fert dou-|leur trop|du- re,|i'en ay re-|ceu _ _ cent|mil- * le|maulx,|
 A,4 A,2 D2 | C2 C,D, E,F, G,2 | A,4 G,4 | C,4 z4 | C4 A,2 A,2 | A,6 C2 | F,4 A,4 | G,4 C,4 | %24
w: !'en ay eu|de trop _ _ _ _|grands as-|saulx,|or, dieu me|doibt bon-|ne'ad- ven-|tu- re,|
 F,4 D,2 F,2 | C,3 D, E,2 F,2 | G,2 A,2 E,4 | A,4 z4 | C4 A,2 A,2 |"^#" A,6 C2 | F,4 A,4 | %31
w: for- tu- ne'a|faict _ _ sur|moy _ ses|saulx,|or, dieu me|doibt bon-|ne'ad- ven-|
 G,4 C,4 | F,4 D,2 F,2 | C,3 D, E,2 F,2 | G,2 A,2 E,4 | A,8 |] %36
w: tu- re,|for- tu- ne'a|faict _ _ sur|moy _ ses|saulx.|

